X: 20677
T: John Watt Henry's
R: reel
M: 4/4
K: Dmajor
F|A2 AA B2 AF|DFAF EDB,B|A2 AA B2 AB|dBAF EF D:|
c|d2 fded fd|d2 fd B2 Bc|d2 fded Bc|dBAF EFDc|
d2 fded fd|d2 fdBA (3Bcd|g2 fedB AB|dBAF EF D||

